flaticon/music/amplifier-3.svg

<svg xmlns="http://www.w3.org/2000/svg" width="32" height="32" viewBox="0 0 24 24">
    <path d="M2.398438 6.800781C2.398438 7.019531 2.222656 7.199219 2 7.199219 1.777344 7.199219 1.601562 7.019531 1.601562 6.800781 1.601562 6.578125 1.777344 6.398438 2 6.398438 2.222656 6.398438 2.398438 6.578125 2.398438 6.800781zM3.601562 8C3.601562 8.222656 3.421875 8.398438 3.199219 8.398438 2.980469 8.398438 2.800781 8.222656 2.800781 8 2.800781 7.777344 2.980469 7.601562 3.199219 7.601562 3.421875 7.601562 3.601562 7.777344 3.601562 8zM4.800781 6.800781C4.800781 7.019531 4.621094 7.199219 4.398438 7.199219 4.179688 7.199219 4 7.019531 4 6.800781 4 6.578125 4.179688 6.398438 4.398438 6.398438 4.621094 6.398438 4.800781 6.578125 4.800781 6.800781zM6 5.601562C6 5.820312 5.820312 6 5.601562 6 5.378906 6 5.199219 5.820312 5.199219 5.601562 5.199219 5.378906 5.378906 5.199219 5.601562 5.199219 5.820312 5.199219 6 5.378906 6 5.601562zM6 8C6 8.222656 5.820312 8.398438 5.601562 8.398438 5.378906 8.398438 5.199219 8.222656 5.199219 8 5.199219 7.777344 5.378906 7.601562 5.601562 7.601562 5.820312 7.601562 6 7.777344 6 8zM7.199219 6.800781C7.199219 7.019531 7.019531 7.199219 6.800781 7.199219 6.578125 7.199219 6.398438 7.019531 6.398438 6.800781 6.398438 6.578125 6.578125 6.398438 6.800781 6.398438 7.019531 6.398438 7.199219 6.578125 7.199219 6.800781zM8.398438 5.601562C8.398438 5.820312 8.222656 6 8 6 7.777344 6 7.601562 5.820312 7.601562 5.601562 7.601562 5.378906 7.777344 5.199219 8 5.199219 8.222656 5.199219 8.398438 5.378906 8.398438 5.601562zM8.398438 8C8.398438 8.222656 8.222656 8.398438 8 8.398438 7.777344 8.398438 7.601562 8.222656 7.601562 8 7.601562 7.777344 7.777344 7.601562 8 7.601562 8.222656 7.601562 8.398438 7.777344 8.398438 8zM9.601562 6.800781C9.601562 7.019531 9.421875 7.199219 9.199219 7.199219 8.980469 7.199219 8.800781 7.019531 8.800781 6.800781 8.800781 6.578125 8.980469 6.398438 9.199219 6.398438 9.421875 6.398438 9.601562 6.578125 9.601562 6.800781zM10.800781 5.601562C10.800781 5.820312 10.621094 6 10.398438 6 10.179688 6 10 5.820312 10 5.601562 10 5.378906 10.179688 5.199219 10.398438 5.199219 10.621094 5.199219 10.800781 5.378906 10.800781 5.601562zM10.800781 8C10.800781 8.222656 10.621094 8.398438 10.398438 8.398438 10.179688 8.398438 10 8.222656 10 8 10 7.777344 10.179688 7.601562 10.398438 7.601562 10.621094 7.601562 10.800781 7.777344 10.800781 8zM12 6.800781C12 7.019531 11.820312 7.199219 11.601562 7.199219 11.378906 7.199219 11.199219 7.019531 11.199219 6.800781 11.199219 6.578125 11.378906 6.398438 11.601562 6.398438 11.820312 6.398438 12 6.578125 12 6.800781zM13.199219 5.601562C13.199219 5.820312 13.019531 6 12.800781 6 12.578125 6 12.398438 5.820312 12.398438 5.601562 12.398438 5.378906 12.578125 5.199219 12.800781 5.199219 13.019531 5.199219 13.199219 5.378906 13.199219 5.601562zM13.199219 8C13.199219 8.222656 13.019531 8.398438 12.800781 8.398438 12.578125 8.398438 12.398438 8.222656 12.398438 8 12.398438 7.777344 12.578125 7.601562 12.800781 7.601562 13.019531 7.601562 13.199219 7.777344 13.199219 8zM14.398438 6.800781C14.398438 7.019531 14.222656 7.199219 14 7.199219 13.777344 7.199219 13.601562 7.019531 13.601562 6.800781 13.601562 6.578125 13.777344 6.398438 14 6.398438 14.222656 6.398438 14.398438 6.578125 14.398438 6.800781zM15.601562 5.601562C15.601562 5.820312 15.421875 6 15.199219 6 14.980469 6 14.800781 5.820312 14.800781 5.601562 14.800781 5.378906 14.980469 5.199219 15.199219 5.199219 15.421875 5.199219 15.601562 5.378906 15.601562 5.601562zM15.601562 8C15.601562 8.222656 15.421875 8.398438 15.199219 8.398438 14.980469 8.398438 14.800781 8.222656 14.800781 8 14.800781 7.777344 14.980469 7.601562 15.199219 7.601562 15.421875 7.601562 15.601562 7.777344 15.601562 8zM16.800781 6.800781C16.800781 7.019531 16.621094 7.199219 16.398438 7.199219 16.179688 7.199219 16 7.019531 16 6.800781 16 6.578125 16.179688 6.398438 16.398438 6.398438 16.621094 6.398438 16.800781 6.578125 16.800781 6.800781zM18 5.601562C18 5.820312 17.820312 6 17.601562 6 17.378906 6 17.199219 5.820312 17.199219 5.601562 17.199219 5.378906 17.378906 5.199219 17.601562 5.199219 17.820312 5.199219 18 5.378906 18 5.601562zM18 8C18 8.222656 17.820312 8.398438 17.601562 8.398438 17.378906 8.398438 17.199219 8.222656 17.199219 8 17.199219 7.777344 17.378906 7.601562 17.601562 7.601562 17.820312 7.601562 18 7.777344 18 8zM19.199219 6.800781C19.199219 7.019531 19.019531 7.199219 18.800781 7.199219 18.578125 7.199219 18.398438 7.019531 18.398438 6.800781 18.398438 6.578125 18.578125 6.398438 18.800781 6.398438 19.019531 6.398438 19.199219 6.578125 19.199219 6.800781zM20.398438 8C20.398438 8.222656 20.222656 8.398438 20 8.398438 19.777344 8.398438 19.601562 8.222656 19.601562 8 19.601562 7.777344 19.777344 7.601562 20 7.601562 20.222656 7.601562 20.398438 7.777344 20.398438 8zM21.601562 6.800781C21.601562 7.019531 21.421875 7.199219 21.199219 7.199219 20.980469 7.199219 20.800781 7.019531 20.800781 6.800781 20.800781 6.578125 20.980469 6.398438 21.199219 6.398438 21.421875 6.398438 21.601562 6.578125 21.601562 6.800781zM22.800781 8C22.800781 8.222656 22.621094 8.398438 22.398438 8.398438 22.179688 8.398438 22 8.222656 22 8 22 7.777344 22.179688 7.601562 22.398438 7.601562 22.621094 7.601562 22.800781 7.777344 22.800781 8zM7.484375 14.515625C7.40625 14.441406 7.304688 14.398438 7.199219 14.398438L6.398438 14.398438C6.292969 14.398438 6.191406 14.441406 6.117188 14.515625L5.71875 14.917969C5.640625 14.992188 5.601562 15.09375 5.601562 15.199219L5.601562 16C5.601562 16.105469 5.640625 16.207031 5.71875 16.28125L6.117188 16.683594C6.191406 16.757812 6.292969 16.800781 6.398438 16.800781L7.199219 16.800781C7.304688 16.800781 7.40625 16.757812 7.484375 16.683594L7.882812 16.28125C7.957031 16.207031 8 16.105469 8 16L8 15.199219C8 15.09375 7.957031 14.992188 7.882812 14.917969zM7.199219 15.835938L7.035156 16 6.566406 16 6.398438 15.835938 6.398438 15.367188 6.566406 15.199219 7.035156 15.199219 7.199219 15.367188zM17.882812 14.515625C17.808594 14.441406 17.707031 14.398438 17.601562 14.398438L16.800781 14.398438C16.695312 14.398438 16.59375 14.441406 16.515625 14.515625L16.117188 14.917969C16.042969 14.992188 16 15.09375 16 15.199219L16 16C16 16.105469 16.042969 16.207031 16.117188 16.28125L16.515625 16.683594C16.59375 16.757812 16.695312 16.800781 16.800781 16.800781L17.601562 16.800781C17.707031 16.800781 17.808594 16.757812 17.882812 16.683594L18.28125 16.28125C18.359375 16.207031 18.398438 16.105469 18.398438 16L18.398438 15.199219C18.398438 15.09375 18.359375 14.992188 18.28125 14.917969zM17.601562 15.835938L17.433594 16 16.964844 16 16.800781 15.835938 16.800781 15.367188 16.964844 15.199219 17.433594 15.199219 17.601562 15.367188zM17.601562 15.835938"/>
    <path d="M 23.601562 5.601562 C 23.820312 5.601562 24 5.421875 24 5.199219 L 24 4.0625 C 24 2.707031 22.894531 1.601562 21.535156 1.601562 L 20.398438 1.601562 C 20.179688 1.601562 20 1.777344 20 2 L 15.601562 2 L 15.601562 1.136719 C 15.601562 0.507812 15.089844 0 14.464844 0 L 9.535156 0 C 8.910156 0 8.398438 0.507812 8.398438 1.136719 L 8.398438 2 L 4 2 C 4 1.777344 3.820312 1.601562 3.601562 1.601562 L 2.464844 1.601562 C 1.105469 1.601562 0 2.707031 0 4.0625 L 0 5.199219 C 0 5.421875 0.179688 5.601562 0.398438 5.601562 L 0.398438 20 C 0.179688 20 0 20.179688 0 20.398438 L 0 21.535156 C 0 22.894531 1.105469 24 2.464844 24 L 3.601562 24 C 3.820312 24 4 23.820312 4 23.601562 L 20 23.601562 C 20 23.820312 20.179688 24 20.398438 24 L 21.535156 24 C 22.894531 24 24 22.894531 24 21.535156 L 24 20.398438 C 24 20.179688 23.820312 20 23.601562 20 Z M 21.535156 2.398438 C 22.453125 2.398438 23.199219 3.144531 23.199219 4.0625 L 23.199219 4.800781 L 20.800781 4.800781 L 20.800781 2.398438 Z M 9.199219 1.136719 C 9.199219 0.949219 9.351562 0.800781 9.535156 0.800781 L 14.464844 0.800781 C 14.648438 0.800781 14.800781 0.949219 14.800781 1.136719 L 14.800781 2 L 9.199219 2 Z M 8.800781 2.800781 L 20 2.800781 L 20 3.601562 L 4 3.601562 L 4 2.800781 Z M 0.800781 4.0625 C 0.800781 3.144531 1.546875 2.398438 2.464844 2.398438 L 3.199219 2.398438 L 3.199219 4.800781 L 0.800781 4.800781 Z M 2.800781 5.601562 C 2.800781 5.820312 2.980469 6 3.199219 6 C 3.421875 6 3.601562 5.820312 3.601562 5.601562 C 3.820312 5.601562 4 5.421875 4 5.199219 L 4 4.398438 C 4 4.621094 4.179688 4.800781 4.398438 4.800781 C 4.621094 4.800781 4.800781 4.621094 4.800781 4.398438 L 6.398438 4.398438 C 6.398438 4.621094 6.578125 4.800781 6.800781 4.800781 C 7.019531 4.800781 7.199219 4.621094 7.199219 4.398438 L 8.800781 4.398438 C 8.800781 4.621094 8.980469 4.800781 9.199219 4.800781 C 9.421875 4.800781 9.601562 4.621094 9.601562 4.398438 L 11.199219 4.398438 C 11.199219 4.621094 11.378906 4.800781 11.601562 4.800781 C 11.820312 4.800781 12 4.621094 12 4.398438 L 13.601562 4.398438 C 13.601562 4.621094 13.777344 4.800781 14 4.800781 C 14.222656 4.800781 14.398438 4.621094 14.398438 4.398438 L 16 4.398438 C 16 4.621094 16.179688 4.800781 16.398438 4.800781 C 16.621094 4.800781 16.800781 4.621094 16.800781 4.398438 L 18.398438 4.398438 C 18.398438 4.621094 18.578125 4.800781 18.800781 4.800781 C 19.019531 4.800781 19.199219 4.621094 19.199219 4.398438 L 20 4.398438 L 20 5.199219 C 19.777344 5.199219 19.601562 5.378906 19.601562 5.601562 C 19.601562 5.820312 19.777344 6 20 6 C 20.222656 6 20.398438 5.820312 20.398438 5.601562 L 22 5.601562 C 22 5.820312 22.179688 6 22.398438 6 C 22.621094 6 22.800781 5.820312 22.800781 5.601562 L 22.800781 9.199219 L 21.601562 9.199219 C 21.601562 8.980469 21.421875 8.800781 21.199219 8.800781 C 20.980469 8.800781 20.800781 8.980469 20.800781 9.199219 L 19.199219 9.199219 C 19.199219 8.980469 19.019531 8.800781 18.800781 8.800781 C 18.578125 8.800781 18.398438 8.980469 18.398438 9.199219 L 16.800781 9.199219 C 16.800781 8.980469 16.621094 8.800781 16.398438 8.800781 C 16.179688 8.800781 16 8.980469 16 9.199219 L 14.398438 9.199219 C 14.398438 8.980469 14.222656 8.800781 14 8.800781 C 13.777344 8.800781 13.601562 8.980469 13.601562 9.199219 L 12 9.199219 C 12 8.980469 11.820312 8.800781 11.601562 8.800781 C 11.378906 8.800781 11.199219 8.980469 11.199219 9.199219 L 9.601562 9.199219 C 9.601562 8.980469 9.421875 8.800781 9.199219 8.800781 C 8.980469 8.800781 8.800781 8.980469 8.800781 9.199219 L 7.199219 9.199219 C 7.199219 8.980469 7.019531 8.800781 6.800781 8.800781 C 6.578125 8.800781 6.398438 8.980469 6.398438 9.199219 L 4.800781 9.199219 C 4.800781 8.980469 4.621094 8.800781 4.398438 8.800781 C 4.179688 8.800781 4 8.980469 4 9.199219 L 2.398438 9.199219 C 2.398438 8.980469 2.222656 8.800781 2 8.800781 C 1.777344 8.800781 1.601562 8.980469 1.601562 9.199219 L 1.199219 9.199219 L 1.199219 5.601562 Z M 2.464844 23.199219 C 1.546875 23.199219 0.800781 22.453125 0.800781 21.535156 L 0.800781 20.800781 L 3.199219 20.800781 L 3.199219 23.199219 Z M 23.199219 21.535156 C 23.199219 22.453125 22.453125 23.199219 21.535156 23.199219 L 20.800781 23.199219 L 20.800781 20.800781 L 23.199219 20.800781 Z M 20.398438 20 C 20.179688 20 20 20.179688 20 20.398438 L 20 22.800781 L 4 22.800781 L 4 20.398438 C 4 20.179688 3.820312 20 3.601562 20 L 1.199219 20 L 1.199219 10 L 22.800781 10 L 22.800781 20 Z M 20.398438 20"/>
    <path d="M11.601562 15.601562C11.601562 12.953125 9.445312 10.800781 6.800781 10.800781 4.152344 10.800781 2 12.953125 2 15.601562 2 18.246094 4.152344 20.398438 6.800781 20.398438 9.445312 20.398438 11.601562 18.246094 11.601562 15.601562zM6.800781 19.601562C4.59375 19.601562 2.800781 17.804688 2.800781 15.601562 2.800781 13.394531 4.59375 11.601562 6.800781 11.601562 9.003906 11.601562 10.800781 13.394531 10.800781 15.601562 10.800781 17.804688 9.003906 19.601562 6.800781 19.601562zM17.199219 10.800781C14.554688 10.800781 12.398438 12.953125 12.398438 15.601562 12.398438 18.246094 14.554688 20.398438 17.199219 20.398438 19.847656 20.398438 22 18.246094 22 15.601562 22 12.953125 19.847656 10.800781 17.199219 10.800781zM17.199219 19.601562C14.996094 19.601562 13.199219 17.804688 13.199219 15.601562 13.199219 13.394531 14.996094 11.601562 17.199219 11.601562 19.40625 11.601562 21.199219 13.394531 21.199219 15.601562 21.199219 17.804688 19.40625 19.601562 17.199219 19.601562zM17.199219 19.601562"/>
    <path d="M6.800781 12.398438C5.035156 12.398438 3.601562 13.835938 3.601562 15.601562 3.601562 17.363281 5.035156 18.800781 6.800781 18.800781 8.5625 18.800781 10 17.363281 10 15.601562 10 13.835938 8.5625 12.398438 6.800781 12.398438zM6.800781 18C5.476562 18 4.398438 16.921875 4.398438 15.601562 4.398438 14.277344 5.476562 13.199219 6.800781 13.199219 8.125 13.199219 9.199219 14.277344 9.199219 15.601562 9.199219 16.921875 8.125 18 6.800781 18zM17.199219 12.398438C15.4375 12.398438 14 13.835938 14 15.601562 14 17.363281 15.4375 18.800781 17.199219 18.800781 18.964844 18.800781 20.398438 17.363281 20.398438 15.601562 20.398438 13.835938 18.964844 12.398438 17.199219 12.398438zM17.199219 18C15.875 18 14.800781 16.921875 14.800781 15.601562 14.800781 14.277344 15.875 13.199219 17.199219 13.199219 18.523438 13.199219 19.601562 14.277344 19.601562 15.601562 19.601562 16.921875 18.523438 18 17.199219 18zM14.398438 20.398438L9.601562 20.398438C9.378906 20.398438 9.199219 20.578125 9.199219 20.800781L9.199219 22C9.199219 22.222656 9.378906 22.398438 9.601562 22.398438L14.398438 22.398438C14.621094 22.398438 14.800781 22.222656 14.800781 22L14.800781 20.800781C14.800781 20.578125 14.621094 20.398438 14.398438 20.398438zM14 21.601562L10 21.601562 10 21.199219 14 21.199219zM14 21.601562"/>
</svg>

<svg xmlns="http://www.w3.org/2000/svg" width="32" height="32" viewBox="0 0 24 24">
    <path d="M2.398 6.8a.398.398 0 1 1-.796 0 .398.398 0 1 1 .796 0zm0 0M3.602 8c0 .223-.18.398-.403.398a.398.398 0 1 1 0-.796c.223 0 .403.175.403.398zm0 0M4.8 6.8A.401.401 0 1 1 4 6.797.401.401 0 0 1 4.8 6.8zm0 0M6 5.602a.4.4 0 1 1-.8-.004.4.4 0 0 1 .8.004zm0 0M6 8c0 .223-.18.398-.398.398a.398.398 0 1 1 0-.796C5.82 7.602 6 7.777 6 8zm0 0M7.2 6.8a.4.4 0 1 1-.801-.003.4.4 0 0 1 .8.004zm0 0M8.398 5.602a.398.398 0 1 1-.796 0 .398.398 0 1 1 .796 0zm0 0M8.398 8A.395.395 0 0 1 8 8.398.395.395 0 0 1 7.602 8c0-.223.175-.398.398-.398.223 0 .398.175.398.398zm0 0M9.602 6.8a.401.401 0 1 1-.802-.004.401.401 0 0 1 .802.005zm0 0M10.8 5.602A.401.401 0 1 1 10 5.597a.401.401 0 0 1 .802.005zm0 0M10.8 8c0 .223-.179.398-.402.398a.398.398 0 1 1 0-.796c.223 0 .403.175.403.398zm0 0M12 6.8a.4.4 0 1 1-.8-.003.4.4 0 0 1 .8.004zm0 0M13.2 5.602a.4.4 0 1 1-.801-.004.4.4 0 0 1 .8.004zm0 0M13.2 8c0 .223-.18.398-.4.398a.398.398 0 1 1 0-.796c.22 0 .4.175.4.398zm0 0M14.398 6.8a.398.398 0 1 1-.796 0 .398.398 0 1 1 .796 0zm0 0M15.602 5.602a.401.401 0 1 1-.802-.005.401.401 0 0 1 .802.005zm0 0M15.602 8c0 .223-.18.398-.403.398a.398.398 0 1 1 0-.796c.223 0 .403.175.403.398zm0 0M16.8 6.8A.401.401 0 1 1 16 6.797a.401.401 0 0 1 .802.005zm0 0M18 5.602a.4.4 0 1 1-.8-.004.4.4 0 0 1 .8.004zm0 0M18 8c0 .223-.18.398-.398.398a.398.398 0 1 1 0-.796c.218 0 .398.175.398.398zm0 0M19.2 6.8a.4.4 0 1 1-.801-.003.4.4 0 0 1 .8.004zm0 0M20.398 8a.395.395 0 0 1-.398.398.395.395 0 0 1-.398-.398c0-.223.175-.398.398-.398.223 0 .398.175.398.398zm0 0M21.602 6.8a.401.401 0 1 1-.802-.004.401.401 0 0 1 .802.005zm0 0M22.8 8c0 .223-.179.398-.402.398a.398.398 0 1 1 0-.796c.223 0 .403.175.403.398zm0 0M7.484 14.516a.416.416 0 0 0-.285-.118h-.8a.4.4 0 0 0-.282.118l-.398.402a.384.384 0 0 0-.117.281V16c0 .105.039.207.117.281l.398.403a.4.4 0 0 0 .281.117H7.2a.416.416 0 0 0 .285-.117l.399-.403A.4.4 0 0 0 8 16v-.8a.4.4 0 0 0-.117-.282zm-.285 1.32L7.035 16h-.469l-.168-.164v-.469l.168-.168h.47l.163.168zm0 0M17.883 14.516a.4.4 0 0 0-.281-.118H16.8a.416.416 0 0 0-.285.118l-.399.402a.4.4 0 0 0-.117.281V16a.4.4 0 0 0 .117.281l.399.403c.078.074.18.117.285.117h.8a.4.4 0 0 0 .282-.117l.398-.403a.384.384 0 0 0 .117-.281v-.8a.384.384 0 0 0-.117-.282zm-.281 1.32l-.168.164h-.47l-.163-.164v-.469l.164-.168h.469l.168.168zm0 0"/>
    <path d="M23.602 5.602c.218 0 .398-.18.398-.403V4.063a2.466 2.466 0 0 0-2.465-2.461h-1.137A.398.398 0 0 0 20 2h-4.398v-.863C15.602.507 15.09 0 14.465 0h-4.93C8.91 0 8.398.508 8.398 1.137V2H4a.398.398 0 0 0-.398-.398H2.465A2.466 2.466 0 0 0 0 4.062V5.2c0 .223.18.403.398.403V20a.4.4 0 0 0-.398.398v1.137A2.467 2.467 0 0 0 2.465 24h1.137A.4.4 0 0 0 4 23.602h16a.4.4 0 0 0 .398.398h1.137A2.467 2.467 0 0 0 24 21.535v-1.137a.4.4 0 0 0-.398-.398zm-2.067-3.204c.918 0 1.664.747 1.664 1.664v.739h-2.398V2.398zM9.2 1.137C9.2.949 9.352.8 9.535.8h4.93c.183 0 .336.148.336.336V2H9.199zM8.801 2.8H20v.8H4v-.8zm-8 1.261c0-.917.746-1.664 1.664-1.664h.734v2.403H.801zm2 1.54a.4.4 0 0 0 .8 0c.22 0 .399-.18.399-.403v-.8a.401.401 0 1 0 .8 0h1.598a.401.401 0 0 0 .8 0h1.603a.401.401 0 1 0 .8 0H11.2a.401.401 0 0 0 .8 0h1.603a.398.398 0 1 0 .796 0H16a.401.401 0 1 0 .8 0h1.598a.401.401 0 0 0 .8 0h.802v.8a.398.398 0 0 0-.398.403.398.398 0 1 0 .796 0H22a.4.4 0 0 0 .8 0v3.597h-1.198a.401.401 0 0 0-.801 0h-1.602a.4.4 0 0 0-.8 0H16.8a.401.401 0 0 0-.801 0h-1.602a.398.398 0 1 0-.796 0H12a.4.4 0 0 0-.8 0H9.601a.401.401 0 0 0-.801 0H7.199a.4.4 0 0 0-.8 0H4.8A.401.401 0 0 0 4 9.2H2.398a.398.398 0 1 0-.796 0h-.403V5.602zm-.336 17.597A1.665 1.665 0 0 1 .8 21.535v-.734h2.398v2.398zm20.734-1.664c0 .918-.746 1.664-1.664 1.664h-.734v-2.398h2.398zM20.4 20a.4.4 0 0 0-.399.398v2.403H4v-2.403A.4.4 0 0 0 3.602 20H1.199V10h21.602v10zm0 0"/>
    <path d="M11.602 15.602c0-2.649-2.157-4.801-4.801-4.801A4.805 4.805 0 0 0 2 15.6a4.804 4.804 0 0 0 4.8 4.797c2.645 0 4.802-2.152 4.802-4.796zm-4.801 4c-2.207 0-4-1.797-4-4 0-2.207 1.793-4 4-4 2.203 0 4 1.793 4 4 0 2.203-1.797 4-4 4zm0 0M17.2 10.8a4.807 4.807 0 0 0-4.802 4.802 4.806 4.806 0 0 0 4.801 4.796c2.649 0 4.801-2.152 4.801-4.796 0-2.649-2.152-4.801-4.8-4.801zm0 8.802c-2.204 0-4-1.797-4-4 0-2.207 1.796-4 4-4 2.206 0 4 1.793 4 4 0 2.203-1.794 4-4 4zm0 0"/>
    <path d="M6.8 12.398a3.204 3.204 0 0 0-3.198 3.204c0 1.761 1.433 3.199 3.199 3.199C8.562 18.8 10 17.363 10 15.6a3.207 3.207 0 0 0-3.2-3.203zM6.8 18a2.405 2.405 0 0 1-2.402-2.398 2.406 2.406 0 0 1 2.403-2.403 2.401 2.401 0 0 1 0 4.8zm0 0M17.2 12.398a3.207 3.207 0 0 0-3.2 3.204c0 1.761 1.438 3.199 3.2 3.199 1.765 0 3.198-1.438 3.198-3.2a3.204 3.204 0 0 0-3.199-3.203zm0 5.602a2.401 2.401 0 0 1 0-4.8 2.406 2.406 0 0 1 2.402 2.402A2.405 2.405 0 0 1 17.199 18zm0 0M14.398 20.398H9.602a.402.402 0 0 0-.403.403V22c0 .223.18.398.403.398h4.796a.398.398 0 0 0 .403-.398v-1.2a.402.402 0 0 0-.403-.402zM14 21.602h-4v-.403h4zm0 0"/>
</svg>
